X:1
T:Carman's Whistle, The
M:6/4
L:1/8
S:Chappell - Popular Music of the Olden Times  (1859)
Z:AK/Fiddler's Companion
K:C
c4c2 B4G2 | A4A2 G6 | c4c2 B4G2 | A3G A2 G6 :|
F2A4 E2G4 | D2F4 E4C2 | F2A4 E2G4 | F3E D2C6 ||
F2A4 E2G4 | D2F4 E4C2 | F2A4 E2G4 | FEDC D2 C6 ||

